!!!COM:	Praetorius, Michael
!!!OTL:	Christus der uns selig macht
**kern	**kern	**kern	**kern
*ICvox	*ICvox	*ICvox	*ICvox
*I"Bassus	*I"Tenor	*I"Altus	*I"Diskantus
*clefF4	*clefGv2	*clefG2	*clefG2
*k[b-]	*k[b-]	*k[b-]	*k[b-]
*M2/2	*M2/2	*M2/2	*M2/2
!!Meter Interpreted, Nat Condit-Schultz, 2018, Rule 2
*met(c)	*met(c)	*met(c)	*met(c)
1D	1A	1f#	1dd
1D	1A	1f#	1dd
2GG	2B-	2g	2dd
2C	2G	2e	2cc
2AA	2F	2fn	2cc
2BB-	2F	2d	2b-
1FF	1F	1c	1a
=	=	=	=
2BB-	2F	2d	2b-
2AA	2F	2fn	2cc
2BB-	2F	2f	2dd
2BB-	2B-	2f	2dd
1C	0G	1e	(1cc
1GG	.	1d	1b-)
1D	1F#	1d	1a
=	=	=	=
2G	2B-	2d	2g
2F	2c	2f	2a
2BB-	2d	2f	2b-
2C	2c	2e	2g
2GG	2B-	2d	2g
2C	2G	2c	2e
1D	1Fn	1A	1d
=	=	=	=
2BB-	2F	2d	2f
2AA	2F	2c	2f
2GG	2B-	2d	2g
2GG	2B-	2d	2g
1D	0c	1d	1f
1AA	.	1c	1e
1D	1F#	1A	1d
=	=	=	=
2C	2G	2e	2g
2BBn	2G	2d	2g
2C	2E	2e	2g
2AA	2E	2c	2a
2GG	2G	2d	2b-
2D	2F#	2d	2a
1GG	1B-	1d	1g
=	=	=	=
2G	2B-	2d	2b-
2F	2A	2f	2cc
2BB-	2B-	2f	2dd
2BB-	2B-	2g	2dd
1C	(1e-	0g	(1cc
1G	1d)	.	1b-)
1D	1d	1f#	1a
=	=	=	=
2G	2B-	2d	2g
2F	2c	2fn	2a
2BB-	2d	2f	2b-
2C	2c	2e	2g
2BBn	2G	2d	2g
2C	2G	2c	2e
1GG	1G	1Bn	1d
=	=	=	=
2FF	2A	2c	2f
2BB-	2B-	2d	2f
2GG	2B-	2d	2g
2GG	2B-	2d	2g
1D	0A	(1d	1f
1AA	.	1c#)	1e
00D	00F#	1d	00d
.	.	0.A	.
==	==	==	==
*-	*-	*-	*-
